local/share/icons/dracula-icons-main/scalable/apps/goland.svg

<?xml version="1.0" encoding="UTF-8"?>
<svg xmlns="http://www.w3.org/2000/svg" xmlns:xlink="http://www.w3.org/1999/xlink" width="64" height="64" viewBox="0 0 64 64">
<path fill-rule="nonzero" fill="rgb(61.176471%, 50.196078%, 85.882353%)" fill-opacity="1" d="M 15.609375 8.464844 C 15.609375 12.410156 12.410156 15.609375 8.464844 15.609375 C 4.519531 15.609375 1.324219 12.410156 1.324219 8.464844 C 1.324219 4.519531 4.519531 1.324219 8.464844 1.324219 C 12.410156 1.324219 15.609375 4.519531 15.609375 8.464844 Z M 15.609375 8.464844 "/>
<path fill-rule="nonzero" fill="rgb(18.823529%, 18.823529%, 18.823529%)" fill-opacity="1" d="M 5.820312 4.496094 L 11.113281 4.496094 C 11.84375 4.496094 12.433594 5.089844 12.433594 5.820312 L 12.433594 11.113281 C 12.433594 11.84375 11.84375 12.433594 11.113281 12.433594 L 5.820312 12.433594 C 5.089844 12.433594 4.496094 11.84375 4.496094 11.113281 L 4.496094 5.820312 C 4.496094 5.089844 5.089844 4.496094 5.820312 4.496094 Z M 5.820312 4.496094 "/>
<path fill-rule="nonzero" fill="rgb(97.647059%, 97.647059%, 97.647059%)" fill-opacity="1" d="M 5.292969 11.019531 L 8.398438 11.019531 L 8.398438 11.640625 L 5.292969 11.640625 Z M 5.292969 11.019531 "/>
<path fill-rule="nonzero" fill="rgb(100%, 100%, 100%)" fill-opacity="1" d="M 6.855469 8.886719 C 7.316406 8.886719 7.710938 8.707031 7.9375 8.484375 L 7.9375 6.980469 L 6.75 6.980469 L 6.75 7.523438 L 7.339844 7.523438 L 7.339844 8.183594 C 7.246094 8.265625 7.082031 8.308594 6.925781 8.308594 C 6.269531 8.308594 5.933594 7.871094 5.933594 7.148438 C 5.933594 6.429688 6.320312 5.996094 6.875 5.996094 C 7.179688 5.996094 7.367188 6.117188 7.535156 6.277344 L 7.886719 5.851562 C 7.667969 5.632812 7.335938 5.425781 6.855469 5.425781 C 5.964844 5.425781 5.253906 6.070312 5.253906 7.167969 C 5.253906 8.28125 5.949219 8.886719 6.855469 8.886719 Z M 6.855469 8.886719 "/>
<path fill-rule="nonzero" fill="rgb(100%, 100%, 100%)" fill-opacity="1" d="M 9.976562 8.886719 C 10.859375 8.886719 11.46875 8.222656 11.46875 7.140625 C 11.46875 6.058594 10.859375 5.425781 9.976562 5.425781 C 9.09375 5.425781 8.484375 6.054688 8.484375 7.140625 C 8.484375 8.222656 9.09375 8.886719 9.976562 8.886719 Z M 9.976562 8.308594 C 9.480469 8.308594 9.167969 7.855469 9.167969 7.140625 C 9.167969 6.425781 9.480469 5.996094 9.976562 5.996094 C 10.472656 5.996094 10.789062 6.425781 10.789062 7.140625 C 10.789062 7.855469 10.472656 8.308594 9.976562 8.308594 Z M 9.976562 8.308594 "/>
</svg>

<svg width="64" height="64" version="1.1" viewBox="0 0 16.933 16.933" xmlns="http://www.w3.org/2000/svg">
 <path d="m15.61 8.4662a7.1435 7.1435 0 0 1-7.1435 7.1435 7.1435 7.1435 0 0 1-7.1435-7.1435 7.1435 7.1435 0 0 1 7.1435-7.1435 7.1435 7.1435 0 0 1 7.1435 7.1435z" fill="#9c80db" stroke-width=".26457"/>
 <rect x="4.4978" y="4.4978" width="7.9373" height="7.9373" rx="1.3229" ry="1.3229" fill="#303030" style="paint-order:markers stroke fill"/>
 <path d="m5.2916 11.02h3.1059v0.62118h-3.1059z" fill="#f9f9f9" stroke-width=".26457"/>
 <g fill="#fff" stroke-width=".1127" aria-label="GO">
  <path d="m6.8538 8.8866c0.46431 0 0.8565-0.18032 1.0819-0.4012v-1.5056h-1.1856v0.54545h0.59053v0.65815c-0.094666 0.081142-0.25695 0.12622-0.41473 0.12622-0.65815 0-0.99173-0.43726-0.99173-1.163 0-0.71675 0.38768-1.1495 0.94215-1.1495 0.30203 0 0.49136 0.12171 0.65815 0.27949l0.35162-0.42374c-0.21638-0.22089-0.54996-0.42825-1.0323-0.42825-0.88805 0-1.6003 0.64463-1.6003 1.7446 0 1.1134 0.69421 1.7175 1.6003 1.7175z"/>
  <path d="m9.9777 8.8866c0.88355 0 1.4921-0.66266 1.4921-1.7446 0-1.0819-0.60856-1.7175-1.4921-1.7175s-1.4921 0.6311-1.4921 1.7175c0 1.0819 0.60856 1.7446 1.4921 1.7446zm0-0.57701c-0.49587 0-0.81142-0.4553-0.81142-1.1675 0-0.71675 0.31555-1.145 0.81142-1.145s0.81142 0.42825 0.81142 1.145c0 0.71225-0.31555 1.1675-0.81142 1.1675z"/>
 </g>
</svg>
